src/data-preprocessing/interpolation_methods.svg

<?xml version="1.0" encoding="UTF-8" standalone="no"?>
<svg
   width="1425"
   height="350"
   viewBox="-55 -230 1425 350"
   version="1.1"
   id="svg211"
   sodipodi:docname="interpolation_methods.svg"
   inkscape:version="1.2.1 (9c6d41e410, 2022-07-14)"
   xmlns:inkscape="http://www.inkscape.org/namespaces/inkscape"
   xmlns:sodipodi="http://sodipodi.sourceforge.net/DTD/sodipodi-0.dtd"
   xmlns:xlink="http://www.w3.org/1999/xlink"
   xmlns="http://www.w3.org/2000/svg"
   xmlns:svg="http://www.w3.org/2000/svg"
   xmlns:rdf="http://www.w3.org/1999/02/22-rdf-syntax-ns#"
   xmlns:cc="http://creativecommons.org/ns#"
   xmlns:dc="http://purl.org/dc/elements/1.1/">
  <sodipodi:namedview
     id="namedview213"
     pagecolor="#ffffff"
     bordercolor="#666666"
     borderopacity="1.0"
     inkscape:showpageshadow="2"
     inkscape:pageopacity="0.0"
     inkscape:pagecheckerboard="0"
     inkscape:deskcolor="#d1d1d1"
     showgrid="false"
     inkscape:zoom="1.0755556"
     inkscape:cx="471.84915"
     inkscape:cy="376.54957"
     inkscape:window-width="1920"
     inkscape:window-height="1017"
     inkscape:window-x="-8"
     inkscape:window-y="-8"
     inkscape:window-maximized="1"
     inkscape:current-layer="nearest_1d" />
  <title
     id="title2">comparison of 1D and 2D interpolation</title>
  <desc
     id="desc4">Comparison of nearest-neighbour, linear, cubic, bilinear and bicubic interpolation methods by CMG Lee. The black dots correspond to the point being interpolated, and the red, yellow, green and blue dots correspond to the neighbouring samples. Their heights above the ground correspond to their values.</desc>
  <style
     type="text/css"
     id="style6">
  .graph_1 { stroke:#666666; fill:none; }
  .graph_2 { stroke:#cc00ff; fill:none; }
  .point_i { stroke:#cc00ff; fill:none;    stroke-opacity:0.1; }
  .floor   { stroke:#eeeeee; fill:none;    stroke-opacity:1.0; }
  .base    { stroke:#66ccff; fill:#66ccff; stroke-opacity:0.2; fill-opacity:0.1; }
  .point   { stroke:#000000; }
  .point_0 { stroke:#ff0000; }
  .point_1 { stroke:#cc9900; }
  .point_2 { stroke:#009900; }
  .point_3 { stroke:#0000ff; }
  .plane_1 { stroke-opacity:0.6; }
  .plane_2 { stroke-opacity:0.4; }
  .plane_3 { stroke-opacity:0.2; }
 </style>
  <defs
     id="defs51">
    <clipPath
       id="clip_graph">
      <rect
         x="-4999"
         y="-9999"
         width="9999"
         height="9999"
         id="rect8" />
    </clipPath>
    <g
       id="point">
      <circle
         cx="0"
         cy="0"
         r="4"
         stroke-width="8"
         fill="none"
         id="circle11" />
      <path
         d="M 0,10 V 9999"
         id="path13" />
    </g>
    <circle
       id="joint"
       class="graph_2"
       cx="0"
       cy="0"
       r="3"
       fill="none" />
    <g
       id="common_1d_2">
      <path
         class="floor"
         d="M -10,0 H 310"
         id="path17" />
      <g
         clip-path="url(#clip_graph)"
         id="g23">
        <use
           class="point_1"
           xlink:href="#point"
           transform="translate(100,-100)"
           id="use19" />
        <use
           class="point_2"
           xlink:href="#point"
           transform="translate(200,-200)"
           id="use21" />
      </g>
    </g>
    <g
       id="common_1d_4">
      <use
         xlink:href="#common_1d_2"
         id="use26" />
      <g
         clip-path="url(#clip_graph)"
         id="g32">
        <use
           class="point_0"
           xlink:href="#point"
           transform="translate(0,-150)"
           id="use28" />
        <use
           class="point_3"
           xlink:href="#point"
           transform="translate(300,-50)"
           id="use30" />
      </g>
      <path
         class="graph_1 plane_2"
         d="M 0,-150 C 200,50 140,-430 300,-50"
         id="path34" />
    </g>
    <g
       id="common_2d_2">
      <path
         class="floor"
         d="M -10,0 H 310 M 140,40 20,-80 M 240,40 120,-80"
         id="path37" />
      <use
         class="plane_2"
         xlink:href="#common_1d_2"
         transform="translate(-40,-40)"
         id="use39" />
      <path
         class="base"
         d="M 100,0 H 200 L 160,-40 H 60 Z"
         id="path41" />
      <g
         clip-path="url(#clip_graph)"
         id="g47">
        <use
           class="point_1 plane_1"
           xlink:href="#point"
           transform="translate(100,-50)"
           id="use43" />
        <use
           class="point_2 plane_1"
           xlink:href="#point"
           transform="translate(200,-100)"
           id="use45" />
      </g>
    </g>
    <path
       id="base_1d"
       class="base"
       d="M 100,0 H 200" />
  </defs>
  <circle
     cx="312.3967"
     cy="16.735537"
     r="99999"
     fill="#ffffff"
     id="circle53" />
  <g
     id="nearest_1d"
     style="font-size:40px;font-family:Helvetica, Arial, sans-serif;text-anchor:middle;fill:#000000;stroke:none;stroke-width:5;stroke-linecap:round;stroke-linejoin:round">
    <text
       transform="translate(150)"
       x="0"
       y="50"
       id="text59"><tspan
         id="tspan55">nearest-</tspan><tspan
         x="0"
         dy="1em"
         id="tspan57">neighbour</tspan></text>
    <use
       xlink:href="#common_1d_2"
       id="use61" />
    <use
       xlink:href="#base_1d"
       id="use63" />
    <path
       class="graph_1 plane_2"
       d="M 50,-100 H 150 V -200 H 250"
       id="path65" />
    <g
       clip-path="url(#clip_graph)"
       id="g69">
      <use
         class="point"
         xlink:href="#point"
         transform="translate(125,-100)"
         id="use67" />
    </g>
  </g>
  <g
     id="linear_1d"
     transform="translate(1030.5785)"
     style="font-size:40px;font-family:Helvetica, Arial, sans-serif;text-anchor:middle;fill:#000000;stroke:none;stroke-width:5;stroke-linecap:round;stroke-linejoin:round">
    <text
       x="150.92975"
       y="44.194214"
       id="text74"><tspan
         id="tspan72">linear</tspan></text>
    <use
       xlink:href="#common_1d_2"
       id="use76" />
    <use
       xlink:href="#base_1d"
       id="use78" />
    <path
       class="graph_1 plane_2"
       d="M 100,-100 200,-200"
       id="path80" />
    <g
       clip-path="url(#clip_graph)"
       id="g84">
      <use
         class="point"
         xlink:href="#point"
         transform="translate(125,-125)"
         id="use82" />
    </g>
  </g>
  <metadata
     id="metadata997">
    <rdf:RDF>
      <cc:Work
         rdf:about="">
        <dc:title>comparison of 1D and 2D interpolation</dc:title>
      </cc:Work>
    </rdf:RDF>
  </metadata>
  <g
     id="previous"
     style="font-size:40px;font-family:Helvetica, Arial, sans-serif;text-anchor:middle;fill:#000000;stroke:none;stroke-width:5;stroke-linecap:round;stroke-linejoin:round"
     transform="translate(351.44627,0.92975203)">
    <text
       transform="translate(150)"
       x="0"
       y="50"
       id="text1369">previous</text>
    <use
       xlink:href="#common_1d_2"
       id="use1371" />
    <use
       xlink:href="#base_1d"
       id="use1373" />
    <path
       class="graph_1 plane_2"
       d="M 75.418159,-98.45535 H 200.20661 v -99.3703 h 66.21408"
       id="path1375"
       style="stroke-width:5;stroke-dasharray:none"
       sodipodi:nodetypes="cccc" />
    <g
       clip-path="url(#clip_graph)"
       id="g1379">
      <use
         class="point"
         xlink:href="#point"
         transform="translate(125,-100)"
         id="use1377" />
    </g>
  </g>
  <g
     id="next"
     style="font-size:40px;font-family:Helvetica, Arial, sans-serif;text-anchor:middle;fill:#000000;stroke:none;stroke-width:5;stroke-linecap:round;stroke-linejoin:round"
     transform="translate(690.80577,-0.9297521)">
    <text
       transform="translate(150)"
       x="0"
       y="50"
       id="text1383">next</text>
    <use
       xlink:href="#common_1d_2"
       id="use1385" />
    <use
       xlink:href="#base_1d"
       id="use1387" />
    <path
       class="graph_1 plane_2"
       d="m 24.252023,-100.28508 h 74.611623 v -99.42985 l 150.851284,-0.92975"
       id="path1389"
       style="stroke-width:5;stroke-dasharray:none"
       sodipodi:nodetypes="cccc" />
    <g
       clip-path="url(#clip_graph)"
       id="g1393">
      <use
         class="point"
         xlink:href="#point"
         transform="matrix(0.99709253,0,0,1.0100365,125,-200.35634)"
         id="use1391" />
    </g>
  </g>
</svg>

<?xml version="1.0" encoding="utf-8"?>
<svg xmlns="http://www.w3.org/2000/svg" xmlns:xlink="http://www.w3.org/1999/xlink" width="100%" height="100%" viewBox="-55 -230 1125 750">
 <title>comparison of 1D and 2D interpolation</title>
 <desc>Comparison of nearest-neighbour, linear, cubic, bilinear and bicubic interpolation methods by CMG Lee. The black dots correspond to the point being interpolated, and the red, yellow, green and blue dots correspond to the neighbouring samples. Their heights above the ground correspond to their values.</desc>
 <style type="text/css">
  .graph_1 { stroke:#666666; fill:none; }
  .graph_2 { stroke:#cc00ff; fill:none; }
  .point_i { stroke:#cc00ff; fill:none;    stroke-opacity:0.1; }
  .floor   { stroke:#eeeeee; fill:none;    stroke-opacity:1.0; }
  .base    { stroke:#66ccff; fill:#66ccff; stroke-opacity:0.2; fill-opacity:0.1; }
  .point   { stroke:#000000; }
  .point_0 { stroke:#ff0000; }
  .point_1 { stroke:#cc9900; }
  .point_2 { stroke:#009900; }
  .point_3 { stroke:#0000ff; }
  .plane_1 { stroke-opacity:0.6; }
  .plane_2 { stroke-opacity:0.4; }
  .plane_3 { stroke-opacity:0.2; }
 </style>
 <defs>
  <clipPath id="clip_graph">
   <rect x="-4999" y="-9999" width="9999" height="9999"/>
  </clipPath>
  <g id="point">
   <circle cx="0" cy="0" r="4" stroke-width="8" fill="none"/>
   <path d="M 0,10 V 9999"/>
  </g>
  <circle id="joint" class="graph_2" cx="0" cy="0" r="3" fill="none"/>
  <g id="common_1d_2">
   <path class="floor" d="M -10,0 h 320"/>
   <g clip-path="url(#clip_graph)">
    <use  class="point_1" xlink:href="#point" transform="translate(100,-100)"/>
    <use  class="point_2" xlink:href="#point" transform="translate(200,-200)"/>
   </g>
  </g>
  <g id="common_1d_4">
   <use  xlink:href="#common_1d_2"/>
   <g clip-path="url(#clip_graph)">
    <use  class="point_0" xlink:href="#point" transform="translate(  0,-150)"/>
    <use  class="point_3" xlink:href="#point" transform="translate(300, -50)"/>
   </g>
   <path class="graph_1 plane_2" d="M 0,-150 c 200,200 140,-280 300,100"/>
  </g>
  <g id="common_2d_2">
   <path class="floor" d="M -10,0 h 320 M 140,40 l -120,-120 M 240,40 l -120,-120"/>
   <use  class="plane_2" xlink:href="#common_1d_2" transform="translate(-40,-40)"/>
   <path class="base"  d="M 100,0 h 100 l -40,-40 h -100 z"/>
   <g clip-path="url(#clip_graph)">
    <use  class="point_1 plane_1" xlink:href="#point" transform="translate(100, -50)"/>
    <use  class="point_2 plane_1" xlink:href="#point" transform="translate(200,-100)"/>
   </g>
  </g>
  <path id="base_1d" class="base" d="M 100,0 h 100"/>
 </defs>
 <circle cx="0" cy="0" r="99999" fill="#ffffff"/>
 <g font-family="Helvetica,Arial,sans-serif" font-size="40" text-anchor="middle"
    stroke-linejoin="round" stroke-linecap="round" stroke-width="5" stroke="none" fill="#000000">
  <g id="nearest_1d" transform="translate(0,0)">
   <text transform="translate(150,0)" x="0" y="50"><tspan>1D nearest-</tspan
    ><tspan x="0" dy="1em">neighbour</tspan></text>
   <use  xlink:href="#common_1d_2"/>
   <use  xlink:href="#base_1d"/>
   <path class="graph_1 plane_2" d="M 50,-100 h 100 v -100 h 100"/>
   <g clip-path="url(#clip_graph)">
    <use class="point" xlink:href="#point" transform="translate(125,-100)"/>
   </g>
  </g>
  <g id="linear_1d" transform="translate(350,0)">
   <text transform="translate(150,0)" x="0" y="60"><tspan>Linear</tspan></text>
   <use  xlink:href="#common_1d_2"/>
   <use  xlink:href="#base_1d"/>
   <path class="graph_1 plane_2" d="M 100,-100 l 100,-100"/>
   <g clip-path="url(#clip_graph)">
    <use class="point" xlink:href="#point" transform="translate(125,-125)"/>
   </g>
  </g>
  <g id="cubic_1d" transform="translate(700,0)">
   <text transform="translate(150,0)" x="0" y="60"><tspan>Cubic</tspan></text>
   <use xlink:href="#common_1d_4"/>
   <path class="base" d="M 0,0 h 300"/>
   <g clip-path="url(#clip_graph)">
    <use class="point" xlink:href="#point" transform="translate(125,-113)"/>
   </g>
  </g>
  <g id="nearest_2d" transform="translate(0,380)">
   <text transform="translate(150,0)" x="0" y="80"><tspan>2D nearest-</tspan
    ><tspan x="0" dy="1em">neighbour</tspan></text>
   <use  xlink:href="#common_2d_2"/>
   <path class="graph_1 plane_2" d="M 10,-140 h 100 v -100 h 100"/>
   <path class="graph_2"         d="M 145,-30 l -40,-40 v -50 l -40,-40"/>
   <path class="point_i"         d="M 85,-140 V -40 L 125,0 V -50"/>
   <use  xlink:href="#joint" transform="translate( 85,-140)"/>
   <use  xlink:href="#joint" transform="translate(125, -50)"/>
   <g clip-path="url(#clip_graph)" transform="translate(-10,-10)">
    <use class="point" xlink:href="#point" transform="translate(125,-50)"/>
   </g>
   <path class="graph_1 plane_1" d="M  50,-50 h 100 v  -50 h 100"/>
  </g>
  <g id="linear_2d" transform="translate(350,380)">
   <text transform="translate(150,0)" x="0" y="100"><tspan>Bilinear</tspan></text>
   <use  xlink:href="#common_2d_2"/>
   <path class="graph_1 plane_2" d="M 60,-140 l 100,-100"/>
   <path class="graph_2"         d="M 125,-63 l -40,-102"/>
   <path class="point_i"         d="M 85,-165 V -40 L 125,0 V -63"/>
   <use  xlink:href="#joint" transform="translate( 85,-165)"/>
   <use  xlink:href="#joint" transform="translate(125, -63)"/>
   <g clip-path="url(#clip_graph)" transform="translate(-10,-10)">
    <use  class="point" xlink:href="#point" transform="translate(125,-80)"/>
   </g>
   <path class="graph_1 plane_1" d="M 100,-50 l 100,-50"/>
  </g>
  <g id="cubic_2d" transform="translate(700,380)">
   <text transform="translate(150,0)" x="0" y="100"><tspan>Bicubic</tspan></text>
   <path class="floor" d="M -20, 0 h 340 M 150,50 l -140,-140 M 250,50 l -140,-140
                          M  20,40 h 340 M 350,50 l -140,-140 M  50,50 l -140,-140"/>
   <g class="plane_3" clip-path="url(#clip_graph)" transform="translate(-80,-80)">
    <use  xlink:href="#common_1d_2"/>
    <use  class="point_0" xlink:href="#point" transform="translate(  0, -50)"/>
    <use  class="point_3" xlink:href="#point" transform="translate(300,-170)"/>
    <path class="graph_1" d="M 0,-50 c 160,0 100,-230 300,-120"/>
   </g>
   <use  class="plane_2" xlink:href="#common_1d_4" transform="translate(-40,-40)"/>
   <g class="plane_1" clip-path="url(#clip_graph)">
    <use  class="point_0" xlink:href="#point" transform="translate(  0,-200)"/>
    <use  class="point_1" xlink:href="#point" transform="translate(100, -50)"/>
    <use  class="point_2" xlink:href="#point" transform="translate(200,-100)"/>
    <use  class="point_3" xlink:href="#point" transform="translate(300,-150)"/>
    <path class="graph_1" d="M 0,-200 c 100,310 200,40 300,50"/>
   </g>
   <path class="base"    d="M 40,40 h 300 l -120,-120 h -300 z"/>
   <path class="graph_2" d="M 165,-22 c -95,-55 -40,-105 -120,-192"/>
   <path class="point_i" d="M 45,-215 V -80 L 165,40 V -22 M 85,-153 V -40 M 125, -53 V 0"/>
   <use  xlink:href="#joint" transform="translate( 45,-215)"/>
   <use  xlink:href="#joint" transform="translate( 85,-153)"/>
   <use  xlink:href="#joint" transform="translate(125, -53)"/>
   <use  xlink:href="#joint" transform="translate(165, -22)"/>
   <g clip-path="url(#clip_graph)" transform="translate(-10,-10)">
    <use  class="point"   xlink:href="#point" transform="translate(125,-58)"/>
   </g>
   <g class="plane_0" clip-path="url(#clip_graph)" transform="translate(40,40)">
    <use  class="point_0" xlink:href="#point" transform="translate(  0,-100)"/>
    <use  class="point_1" xlink:href="#point" transform="translate(100, -70)"/>
    <use  class="point_2" xlink:href="#point" transform="translate(200, -50)"/>
    <use  class="point_3" xlink:href="#point" transform="translate(300,-100)"/>
    <path class="graph_1" d="M 0,-100 c 100,15 200,105 300,0"/>
   </g>
  </g>
 </g>
</svg>
